X:1755
T:Always Welcome
M:2/4
L:1/16
N:"collected by Cronin"
B:O'Neill's 1755
R:Hornpipe
Z:"Transcribed by Bob Safranek, rjs@gsp.org"
K:A
   (AF) | E2EF A2AB | cBAB ceeg | fefg agaf | ecBc AFFA |
          E2EF A2AB | cBAB ceeg | fefg agaf | ecBc A2  :|
|:  c2  | A2Ac eccf | ecac eccd | B2Bd fefg | agaf edcB |
          A2Ac eccf | ecac ecce | fefg agaf | ecBc A2  :|
|:  e2  | a2ga faea | faea fccB | E2EF AGAB | cBAc BFFe |
          a2ga faea | faea fcce | fefg agaf | ecBc A2  :|


